X: 36217
T: Scully Casey's
R: jig
M: 6/8
K: Gmajor
|:B|"Am"cBc "Am"A2 G|"Am"EcB "Am"cde|"Am"dcA "Am"A2 B|"Am"cde "C"ged|
"Am"cBc "Am"A2 G|"Am"EcB "Am"cde|"Am"dcA "Am"AGE|"G"EDD "G"D2:|
|:d|"C"egg "C"ged|"Am"cAB "Am"c2 d|"Am"eaa "Am"age|"Am"edc "G"d2 g|
"C"egg "C"ged|"Am"cAB "Am"cde|"Am"dcA "Am"AGE|"G"EDD "G"D2:|

